X:1
T:Ya no eres pan y vino - Intro
T:Ya no eres pan y vino - Intro
T:Misa - Comunión
T:Cristeros SJB
C:Cristeros SJB
%%score 1 2 3 4
L:1/8
Q:1/4=75
M:4/4
K:D
V:1 tab stafflines=6 strings=E2,A2,D3,G3,B3,E4 nm="Classical Guitar" snm="Guit."
V:2 treble nm="Flute" snm="Fl."
V:3 treble transpose=-14 nm="Tenor Saxophone" snm="T. Sax."
V:4 treble transpose=-9 nm="Alto Saxophone" snm="A. Sax."
V:1
"D" [!4!D,!1!F]!3!A,!2!D!3!A,"G" [!6!G,,!1!G]!3!G,{/!1!G}!1!A!1!G | %1
"D" !4!D,!1!F!2!D!3!A,{/!1!F} !1!G!1!F!1!E!2!D | %2
"Am" [!5!A,,!2!=C]!3!A,!2!C!1!E !2!B,!3!A,!1!E!1!F | %3
"G" [!6!G,,!1!G]!2!D!3!G,!2!D"Gm" [!6!G,,!3!^A,]!2!D!2!E!2!D | %4
"D" [!4!D,!1!F]!2!D"A"[!5!A,,!1!E]!2!C"Bm" [!5!B,,!2!D]!3!B,"F#m"[!6!F,,!2!C]!3!A, | %5
"G" [!6!G,,!1!G]!3!G,!2!D!1!E"G#other" [!6!^G,,!2!F]!4!^G,!2!E!3!D | %6
"A" [!5!A,,!1!E]!3!A,!2!C!1!E"A+" [!5!A,,!1!=F]!3!A,!2!C!1!F |"D""^Ya no..." [!4!D,!1!F]2 |] %8
V:2
 f4 g2 ag- | g f4 z g2 | a3 g/f/ edef | g3 d ed g2 | f2 e2 d2 c2 | B3 d edef | e3 d/e/ =fede | %7
 f2 |] %8
V:3
[K:E] g4 a2 ba- | a g4 z a2 | b3 a/g/ fefg | a3 e fe a2 | g2 f2 e2 d2 | c3 e fefg | f3 e/f/ =gfef | %7
 g2 |] %8
V:4
[K:B] d4 e2 de- | e d2 c3 B2 | =A3 A/B/ cBcd | e3 B cdeg | f2 e2 d2 c2 | B3 d edBd | %6
 c3 B/c/ =dcBc | d2 |] %8

